.local/share/icons/Gruvbox-Plus-Dark/apps/16/sublime-text.svg

<svg width="16" height="16" version="1.1" xmlns="http://www.w3.org/2000/svg">
  <defs>
    <style id="current-color-scheme" type="text/css">.ColorScheme-Text { color:#ebdbb2; } .ColorScheme-Highlight { color:#458588; }</style>
  </defs>
  <path class="ColorScheme-Text" d="m13.12 1.012-10.26 3.254c-0.149 0.048-0.2715 0.2208-0.2715 0.3848v3.326c0 0.216 0.1956 0.3024 0.2949 0.3438l10.42 3.305c0.1001-0.1123 0.1114-0.2287 0.1114-0.2754v-3.312c0-0.1145-0.08075-0.3237-0.2715-0.3848l-4.297-1.363 4.273-1.356c0.149-0.047 0.2715-0.2178 0.2715-0.3828v-3.326c0-0.172-0.1289-0.2579-0.2715-0.2129zm-7.56 9.207-2.674 0.8477c-0.149 0.047-0.2715 0.2178-0.2715 0.3828v3.326c0 0.164 0.1225 0.2599 0.2715 0.2129l8.856-2.809z" fill="currentColor"/>
</svg>

<svg xmlns="http://www.w3.org/2000/svg" style="isolation:isolate" width="16" height="16" viewBox="0 0 16 16">
 <defs>
  <style id="current-color-scheme" type="text/css">
   .ColorScheme-Text { color:#ebdbb2; } .ColorScheme-Highlight { color:#458588; }
  </style>
  <linearGradient id="arrongin" x1="0%" x2="0%" y1="0%" y2="100%">
   <stop offset="0%" style="stop-color:#d79921; stop-opacity:1"/>
   <stop offset="100%" style="stop-color:#b57614; stop-opacity:1"/>
  </linearGradient>
  <linearGradient id="aurora" x1="0%" x2="0%" y1="0%" y2="100%">
   <stop offset="0%" style="stop-color:#83a598; stop-opacity:1"/>
   <stop offset="100%" style="stop-color:#b16286; stop-opacity:1"/>
  </linearGradient>
  <linearGradient id="fitdance" x1="0%" x2="0%" y1="0%" y2="100%">
   <stop offset="0%" style="stop-color:#8ec07c; stop-opacity:1"/>
   <stop offset="100%" style="stop-color:#458588; stop-opacity:1"/>
  </linearGradient>
  <linearGradient id="oomox" x1="0%" x2="0%" y1="0%" y2="100%">
   <stop offset="0%" style="stop-color:#458588; stop-opacity:1"/>
   <stop offset="100%" style="stop-color:#928374; stop-opacity:1"/>
  </linearGradient>
  <linearGradient id="rainblue" x1="0%" x2="0%" y1="0%" y2="100%">
   <stop offset="0%" style="stop-color:#b8bb26; stop-opacity:1"/>
   <stop offset="100%" style="stop-color:#076678; stop-opacity:1"/>
  </linearGradient>
  <linearGradient id="sunrise" x1="0%" x2="0%" y1="0%" y2="100%">
   <stop offset="0%" style="stop-color: #fe8019; stop-opacity:1"/>
   <stop offset="100%" style="stop-color: #fabd2f; stop-opacity:1"/>
  </linearGradient>
  <linearGradient id="telinkrin" x1="0%" x2="0%" y1="0%" y2="100%">
   <stop offset="0%" style="stop-color: #83a598; stop-opacity:1"/>
   <stop offset="100%" style="stop-color: #83a598; stop-opacity:1"/>
  </linearGradient>
  <linearGradient id="60spsycho" x1="0%" x2="0%" y1="0%" y2="100%">
   <stop offset="0%" style="stop-color: #fb4934; stop-opacity:1"/>
   <stop offset="25%" style="stop-color: #fabd2f; stop-opacity:1"/>
   <stop offset="50%" style="stop-color: #fe8019; stop-opacity:1"/>
   <stop offset="100%" style="stop-color: #689d6a; stop-opacity:1"/>
  </linearGradient>
  <linearGradient id="90ssummer" x1="0%" x2="0%" y1="0%" y2="100%">
   <stop offset="0%" style="stop-color: #b16286; stop-opacity:1"/>
   <stop offset="20%" style="stop-color: #8ec07c; stop-opacity:1"/>
   <stop offset="50%" style="stop-color: #fabd2f; stop-opacity:1"/>
   <stop offset="100%" style="stop-color: #458588; stop-opacity:1"/>
  </linearGradient>
  <linearGradient id="cyberneon" x1="0%" x2="0%" y1="0%" y2="100%">
    <stop offset="0" style="stop-color:#83a598; stop-opacity:1"/>
    <stop offset="1" style="stop-color:#b16286; stop-opacity:1"/>
  </linearGradient>
  <clipPath id="_clipPath_fZLefABIJ56yHQrvz35jIWoVAKRDKxpJ">
   <rect width="16" height="16"/>
  </clipPath>
 </defs>
 <g clip-path="url(#_clipPath_fZLefABIJ56yHQrvz35jIWoVAKRDKxpJ)">
  <g>
   <path style="fill:currentColor" class="ColorScheme-Text" d="M 13.412 8.024 C 13.412 7.86 13.29 7.765 13.141 7.812 L 2.882 11.066 C 2.733 11.113 2.612 11.285 2.612 11.45 L 2.612 14.776 C 2.612 14.94 2.733 15.035 2.882 14.988 L 13.141 11.734 C 13.29 11.686 13.412 11.514 13.412 11.35 L 13.412 8.024 Z"/>
   <path style="fill:currentColor" class="ColorScheme-Text" d="M 2.588 7.976 C 2.588 8.14 2.71 8.235 2.859 8.188 L 13.118 4.934 C 13.267 4.887 13.388 4.715 13.388 4.55 L 13.388 1.224 C 13.388 1.06 13.267 0.965 13.118 1.012 L 2.859 4.266 C 2.71 4.314 2.588 4.486 2.588 4.65 L 2.588 7.976 Z"/>
   <path style="fill:currentColor" class="ColorScheme-Text" d="M 2.612 7.937 C 2.612 8.101 2.733 8.273 2.882 8.32 L 13.141 11.575 C 13.291 11.622 13.412 11.527 13.412 11.363 L 13.412 8.037 C 13.412 7.873 13.291 7.701 13.141 7.653 L 2.882 4.399 C 2.733 4.351 2.612 4.446 2.612 4.611 L 2.612 7.937 Z"/>
  </g>
 </g>
</svg>
